X: 70
T:Wink of Her Eye (#266), The
M:4/4
L:1/8
S:Rice-Walsh manuscript
R:Reel
K:G
BGFG EGDG|BGFG AGEG|BGFG EGDG|Bged BdAc|
BGFG EGDG|BGFG AGEG|BGFG EGDG|Bged Bdef||
g2 gf gbag|egde Bdef|gfef gbag|(3efg de BA A2|
GABd gbag|(3efg dB G2 ga|bgaf gefd|(3efg (3fga gedc||

